X:948
T:Reel 948
M:4/4
K:Gmaj
L:1/8
B2AG BGGF|DGBG cABc|BGAF  (3GFG AG|FDDc BGGA|B2AG BGGF|DEFG ABcA|BcBA GFGg|ecAc BGG2|dgdf egdB|cABG FGEF|dgfg edef|gedc BGG2|dgfg edgd|cBAG FGEF|GBAc  (3Bcd eg|fdcA BGG2|
